src/images/crypto-icon-svg/gxs.svg

<svg xmlns="http://www.w3.org/2000/svg" width="32" height="32" viewBox="0 0 32 32">
  <g fill="none">
    <circle cx="16" cy="16" r="16" fill="#35A5F3"/>
    <path fill="#FFF" d="M7.020763,7.02748221 C8.289863,5.69988221 10.609163,5.64718221 11.921363,6.93718221 C13.2916963,8.27671555 14.6474963,9.62888221 15.988763,10.9936822 C17.417163,9.63668221 18.752563,8.18938221 20.186763,6.83818221 C21.551263,5.60638221 23.870963,5.75488221 25.081563,7.13518221 C26.324163,8.43688221 26.303763,10.7082822 25.014763,11.9720822 C23.687963,13.3232822 22.343863,14.6540822 21.005463,15.9935822 C22.372863,17.4029822 23.798363,18.7570822 25.154163,20.1835822 C26.370563,21.5172822 26.254163,23.7886822 24.936463,25.0146822 C23.638763,26.3246822 21.313263,26.3279822 20.018463,25.0117822 C18.671363,23.6896822 17.353363,22.3355822 16.014963,21.0076822 C14.586563,22.3821822 13.224963,23.8235822 11.782063,25.1835822 C10.399863,26.4098822 8.068863,26.2265822 6.878563,24.8198822 C5.679863,23.5212822 5.708563,21.3080822 6.959863,20.0498822 C8.129863,18.8442822 9.325963,17.6619822 10.524963,16.4825822 C11.027263,16.9834822 11.529463,17.4872822 12.031763,17.9880822 C10.855963,19.2023822 9.619163,20.3642822 8.460863,21.5960822 C7.679863,22.3968822 8.367963,23.8878822 9.465363,23.8703822 C10.130163,23.9285822 10.588863,23.3782822 11.021463,22.9617822 C12.168263,21.7940822 13.332363,20.6466822 14.479163,19.4789822 C11.979163,16.9571822 9.439163,14.4702822 6.951163,11.9367822 C5.653463,10.6292822 5.694063,8.29678221 7.021163,7.02678221 L7.020763,7.02748221 Z M8.472763,10.4167822 C9.796263,11.7973822 11.169863,13.1281822 12.516563,14.4851822 C13.1668963,13.8270489 13.8210963,13.1728155 14.479163,12.5224822 C13.175563,11.2091822 11.877863,9.88708221 10.556863,8.59128221 C10.135863,8.13698221 9.415863,7.96808221 8.866863,8.29428221 C8.103363,8.66428221 7.862363,9.79978221 8.472063,10.4171822 L8.472763,10.4167822 Z M21.412063,8.62628221 C18.926963,11.0662822 16.491163,13.5592822 14.017663,16.0111822 C14.685363,16.6576822 15.350263,17.3070822 16.000563,17.9711822 C16.499963,17.4790822 16.996363,16.9811822 17.492763,16.4830822 C17.995063,16.9839822 18.494363,17.4877822 18.999563,17.9856822 C18.508963,18.4865822 18.015363,18.9815822 17.516063,19.4766822 C18.857363,20.8249822 20.172463,22.1994822 21.557363,23.5040822 C22.259963,24.2440822 23.624463,23.7952822 23.827363,22.8197822 C24.045063,22.1297822 23.548663,21.5326822 23.081263,21.0987822 C20.8777297,18.9059822 18.6790297,16.7083489 16.485163,14.5058822 C16.9874297,14.0050155 17.487763,13.5022155 17.986163,12.9974822 C18.485463,13.4954822 18.984863,13.9933822 19.496163,14.4825822 C20.811263,13.1197822 22.204863,11.8325822 23.499663,10.4493822 C24.152863,9.81458221 23.891563,8.60028221 23.058363,8.25658221 C22.497763,7.96808221 21.815463,8.17188221 21.411963,8.62618221 L21.412063,8.62628221 Z"/>
  </g>
</svg>

<svg xmlns="http://www.w3.org/2000/svg" width="32" height="32"><g fill="none"><circle cx="16" cy="16" r="16" fill="#35A5F3"/><path fill="#FFF" d="M7.02 7.027c1.27-1.327 3.59-1.38 4.901-.09 1.37 1.34 2.726 2.692 4.068 4.057 1.428-1.357 2.764-2.805 4.198-4.156 1.364-1.232 3.684-1.083 4.895.297 1.242 1.302 1.222 3.573-.067 4.837-1.327 1.351-2.671 2.682-4.01 4.022 1.368 1.409 2.793 2.763 4.15 4.19 1.216 1.333 1.1 3.605-.219 4.83-1.297 1.31-3.623 1.314-4.918-.002-1.347-1.322-2.665-2.676-4.003-4.004-1.428 1.374-2.79 2.816-4.233 4.176C10.4 26.41 8.07 26.227 6.88 24.82c-1.2-1.299-1.17-3.512.08-4.77a217.222 217.222 0 0 1 3.566-3.567l1.507 1.505c-1.176 1.214-2.413 2.376-3.571 3.608-.781.8-.093 2.292 1.004 2.274.665.059 1.124-.492 1.556-.908 1.147-1.168 2.311-2.315 3.458-3.483-2.5-2.522-5.04-5.009-7.528-7.542-1.298-1.308-1.257-3.64.07-4.91zm1.453 3.39c1.323 1.38 2.697 2.711 4.044 4.068.65-.658 1.304-1.312 1.962-1.963-1.303-1.313-2.601-2.635-3.922-3.93-.421-.455-1.141-.624-1.69-.298-.764.37-1.005 1.506-.395 2.123zm12.94-1.79c-2.486 2.44-4.922 4.932-7.395 7.384.667.647 1.332 1.296 1.983 1.96.499-.492.995-.99 1.492-1.488.502.501 1.001 1.005 1.507 1.503-.491.5-.985.996-1.484 1.49 1.341 1.349 2.656 2.723 4.041 4.028.703.74 2.067.291 2.27-.684.218-.69-.278-1.287-.746-1.721-2.203-2.193-4.402-4.39-6.596-6.593.502-.501 1.003-1.004 1.501-1.509.5.498.999.996 1.51 1.486 1.315-1.363 2.709-2.65 4.004-4.034.653-.634.392-1.849-.442-2.192-.56-.289-1.243-.085-1.646.37z"/></g></svg>
